symbols/web/not_started/materialsymbolsrounded/not_started_wght700fill1_40px.svg

<svg xmlns="http://www.w3.org/2000/svg" height="40" width="40"><path d="m21.75 25.5 6.833-4.583q.25-.167.375-.417.125-.25.125-.5t-.125-.5q-.125-.25-.375-.417L21.75 14.5q-.542-.375-1.146-.062-.604.312-.604 1.02v9.084q0 .666.604 1 .604.333 1.146-.042ZM15 26.667q.75 0 1.208-.459.459-.458.459-1.208V15q0-.75-.479-1.208-.48-.459-1.188-.459-.75 0-1.208.459-.459.458-.459 1.208v10q0 .75.479 1.208.48.459 1.188.459Zm5 11.166q-3.75 0-7.021-1.375t-5.667-3.77q-2.395-2.396-3.77-5.667T2.167 20q0-3.75 1.375-7t3.77-5.667q2.396-2.416 5.667-3.812T20 2.125q3.75 0 7 1.396t5.667 3.792q2.416 2.395 3.812 5.645 1.396 3.25 1.396 7.042 0 3.75-1.396 7.021t-3.812 5.667Q30.25 35.083 27 36.458t-7 1.375Zm0-4.375q5.708 0 9.583-3.854T33.458 20q0-5.75-3.875-9.604Q25.708 6.542 20 6.542t-9.583 3.854Q6.542 14.25 6.542 20q0 5.75 3.875 9.604 3.875 3.854 9.583 3.854Zm0 0q-5.708 0-9.583-3.854T6.542 20q0-5.75 3.875-9.604Q14.292 6.542 20 6.542t9.583 3.854Q33.458 14.25 33.458 20q0 5.75-3.875 9.604-3.875 3.854-9.583 3.854Z"/></svg>

<svg xmlns="http://www.w3.org/2000/svg" height="40" width="40"><path d="M21.75 25.5 28.583 20.917Q28.833 20.75 28.958 20.5Q29.083 20.25 29.083 20Q29.083 19.75 28.958 19.5Q28.833 19.25 28.583 19.083L21.75 14.5Q21.208 14.125 20.604 14.438Q20 14.75 20 15.458V24.542Q20 25.208 20.604 25.542Q21.208 25.875 21.75 25.5ZM15 26.667Q15.75 26.667 16.208 26.208Q16.667 25.75 16.667 25V15Q16.667 14.25 16.188 13.792Q15.708 13.333 15 13.333Q14.25 13.333 13.792 13.792Q13.333 14.25 13.333 15V25Q13.333 25.75 13.812 26.208Q14.292 26.667 15 26.667ZM20 37.833Q16.25 37.833 12.979 36.458Q9.708 35.083 7.312 32.688Q4.917 30.292 3.542 27.021Q2.167 23.75 2.167 20Q2.167 16.25 3.542 13Q4.917 9.75 7.312 7.333Q9.708 4.917 12.979 3.521Q16.25 2.125 20 2.125Q23.75 2.125 27 3.521Q30.25 4.917 32.667 7.313Q35.083 9.708 36.479 12.958Q37.875 16.208 37.875 20Q37.875 23.75 36.479 27.021Q35.083 30.292 32.667 32.688Q30.25 35.083 27 36.458Q23.75 37.833 20 37.833ZM20 33.458Q25.708 33.458 29.583 29.604Q33.458 25.75 33.458 20Q33.458 14.25 29.583 10.396Q25.708 6.542 20 6.542Q14.292 6.542 10.417 10.396Q6.542 14.25 6.542 20Q6.542 25.75 10.417 29.604Q14.292 33.458 20 33.458ZM20 33.458Q14.292 33.458 10.417 29.604Q6.542 25.75 6.542 20Q6.542 14.25 10.417 10.396Q14.292 6.542 20 6.542Q25.708 6.542 29.583 10.396Q33.458 14.25 33.458 20Q33.458 25.75 29.583 29.604Q25.708 33.458 20 33.458Z"/></svg>
